build/img/google-play_logo.svg

<svg width="28" height="31" viewBox="0 0 28 31" fill="none" xmlns="http://www.w3.org/2000/svg">
    <path d="M0.671875 28.178V2.82491C0.671875 1.94019 1.18357 1.17544 1.92614 0.8125L16.5569 15.4972L1.92025 30.1875C1.18087 29.8235 0.671875 29.0605 0.671875 28.178Z" fill="#00D6FF"/>
    <path d="M21.198 20.1557L5.2002 29.426L17.8173 16.7626L21.198 20.1557Z" fill="#F93647"/>
    <path d="M26.1708 13.7242C26.7029 14.133 27.0461 14.7771 27.0461 15.5016C27.0461 16.2152 26.7133 16.8507 26.1948 17.2602L22.7967 19.2294L19.0781 15.4973L22.7942 11.7675L26.1708 13.7242Z" fill="#FFCE00"/>
    <path d="M5.20996 1.5777L21.1959 10.8411L17.8177 14.2316L5.20996 1.5777Z" fill="#00F076"/>
</svg>

<svg width="28" height="31" viewBox="0 0 28 31" fill="none" xmlns="http://www.w3.org/2000/svg"><path d="M.672 28.178V2.825c0-.885.512-1.65 1.254-2.013l14.63 14.685L1.92 30.187a2.238 2.238 0 0 1-1.248-2.009z" fill="#00D6FF"/><path d="M21.198 20.156L5.2 29.426l12.617-12.663 3.381 3.393z" fill="#F93647"/><path d="M26.17 13.724c.533.409.876 1.053.876 1.778 0 .713-.333 1.349-.851 1.758l-3.398 1.97-3.719-3.733 3.716-3.73 3.377 1.957z" fill="#FFCE00"/><path d="M5.21 1.578l15.986 9.263-3.378 3.39L5.21 1.579z" fill="#00F076"/></svg>
